X: 658
T: Planxty Nancy McDermott
C:O'Carolan
B:O'Neill's 658
Z: 1997 by John Chambers <jc@trillian.mit.edu>
N:"Lively"
M:2/4
L:1/16
K:Gm
| G2GA B2AG | B2d2 dcBA | B2AB cBAG | F2D2 F2GA |
| B2d2 c2f2 | d2g2 gfed | cBAG BAGF | D2G2 G2z2 |
| (d2g2) g2d2 | (g^fga) g2d2 | c2d=e f2c2 | (f=efg) f2(dc) |
| (d2g2) g2d2 | (g^fga) g2d2 | (dcBA) (cBAG) | F2D2 D2z2 |
| B2d2 (Bcd=e) | f4 f2z2 | b2(ab c'bag) | f6 g2 |
| (fgfe d2)(f2 | c2)(f2 B2)(f2 | A2)d2 (cBAc) | B2G2 G2z2 |]


